!!!COM: Joplin, Scott
!!!CDT: 1868/11/24/-1917/04/01/
!!!OTL: Pine Apple Rag
!!!ODT: 1908///
!!!OMD: Slow March tempo
!!!PPR: Seminary Music Co. 
!!!PPP: 112 W. 38th St. N.Y.
!!!PDT: 1908///
!!!ENC: Craig Stuart Sapp
!!!END: 2004/06/07/
!!!YEC: Copyright 2004 by Craig Stuart Sapp
!!!YEN: United States of America
**kern	**kern	**dynam
*staff2	*staff1	*staff1/2
*Ipiano	*Ipiano	*Ipiano
*>[I,A,A1,A,A2,B,B1,B,B2,C,D,D1,D,D2,E,E1,E,E2]	*>[I,A,A1,A,A2,B,B1,B,B2,C,D,D1,D,D2,E,E1,E,E2]	*>[I,A,A1,A,A2,B,B1,B,B2,C,D,D1,D,D2,E,E1,E,E2]
*>norep[I,A,A2,B,B2,C,D,D2,E,E2]	*>norep[I,A,A2,B,B2,C,D,D2,E,E2]	*>norep[I,A,A2,B,B2,C,D,D2,E,E2]
*>I	*>I	*>I
=1-	=1-	=1-
*clefF4	*clefG2	*clefG2
*k[b-e-]	*k[b-e-]	*k[b-e-]
*B-:	*B-:	*B-:
*M2/4	*M2/4	*M2/4
*MM100	*MM100	*MM100
16G\LK	16g/LK	mf
8F\	8f/	.
16E-\Jk	16e-/Jk	.
(16D/LL	(16d/LL	.
16C#/	16c#/	.
16D/	16d/	.
16Cn/JJ)	16cn/JJ)	.
=2	=2	=2
(16BB-/LL	(16B-/LL	.
16C/	16c/	.
16D/	16d/	.
[16F/JJ)	[16f/JJ)	.
4F\]	4f/]	.
=3	=3	=3
16G\LK	16g/LK	.
8G\	8g/	.
16F#\Jk	16f#/Jk	.
(16G\LL	(16g/LL	.
16A\J	16a/J	.
8B-\J)	8b-/J)	.
=4	=4	=4
8c\L	8cc/L	.
[8F\J	[8f/J	.
8F\L]	8f/L]	.
8F\J	8f/J	.
=5!|:	=5!|:	=5!|:
*>A	*>A	*>A
8BB-\L	16b-\ 16dd\ 16gg\LK	mf
.	8ff\	.
8F\ 8B-\ 8d\J	.	.
.	16ee-\Jk	.
8FF\L	(16dd\LL	.
.	16cc#\	.
8F\ 8B-\ 8d\J	16dd\	.
.	16ccn\JJ)	.
=6	=6	=6
8BB-\L	(16b-\LL	.
.	16cc\	.
8F\ 8B-\ 8d\J	16dd\	.
.	[16ff\JJ)	.
8FF\L	16ff\LL]	.
.	16bb-\J	.
8F\ 8B-\ 8d\J	8ff\ 8ddd\J	.
=7	=7	=7
8BB-\L	16b-\ 16dd\ 16gg\LK	.
.	8ff\	.
8F\ 8B-\ 8d\J	.	.
.	16ee-\Jk	.
8FF\L	(16dd\LL	.
.	16cc#\	.
8F\ 8B-\ 8d\J	16dd\	.
.	16ee-\JJ)	.
=8	=8	=8
(8BB-\L	8b-\ 8dd\ 8ff\L	.
8D\	16b-\ (16ff\L	.
.	16dd\JJ)	.
8F\	16b-\ (16ff\LL	.
.	16dd\J	.
8A-\J)	8b-\ 8ff\J)	.
=9	=9	=9
*^	*	*
8G/L	4GG\ 4G\	(16b-\LK	f
.	.	8ee-\ 8bb-\)	.
8G/ 8B-/ 8e-/J	.	.	.
.	.	(16b-\Jk	.
8G-/L	4GG-\ 4G-\	8ee-\ 8bb-\L)	.
8G-/ 8B-/ 8e-/J	.	(16b-\L	.
.	.	[16dd\ [16bb-\JJ)	.
*v	*v	*	*
=10	=10	=10
8FF\ 8F\L	16dd\] 16bb-\LL]	.
.	(16ddd\	.
8F\ 8B-\ 8d\J	16bb-\	.
.	16dd\JJ)	.
*	*^	*
(8DD/ 8D/L	(16ff/LL	4b-\	.
.	16een/	.	.
8DD-/) 8D-/J	16ff/	.	.
.	16gg/JJ)	.	.
*	*v	*v	*
=11	=11	=11
8CC\ 8C\L	(16aa\LK	.
.	8cc\ 8ff\)	.
8A\ 8c\ 8f\J	.	.
.	(16aa\Jk	.
8CC\ 8C\L	8b-\ 8een\ 8gg\L)	.
8B-\ 8c\ 8en\J	16b-\ 16ee\ 16aa\L	.
.	[16a\ [16ff\JJ	.
=12	=12	=12
8FF/ 8F/L	8a\] 8ff\L]	.
(8C/	(16a\L	.
.	16b-\JJ	.
8AA/	16cc\LL	.
.	16dd\	.
8FF/J)	16ee-X\	.
.	16ff\JJ)	.
=13	=13	=13
8BB-\L	16b-\ 16dd\ 16gg\LK	mf
.	8ff\	.
8F\ 8B-\ 8d\J	.	.
.	16ee-\Jk	.
8FF\L	(16dd\LL	.
.	16cc#\	.
8F\ 8B-\ 8d\J	16dd\	.
.	16ccn\JJ)	.
=14	=14	=14
8BB-\L	(16b-\LL	.
.	16cc\	.
8F\ 8B-\ 8d\J	16dd\	.
.	[16ff\JJ)	.
8FF\L	16ff\LL]	.
.	16bb-\J	.
8F\ 8B-\ 8d\J	8ff\ 8ddd\J	.
=15	=15	=15
8BB-\L	16b-\ 16dd\ 16gg\LK	.
.	8ff\	.
8F\ 8B-\ 8d\J	.	.
.	16ee-\Jk	.
8FF\L	(16dd\LL	.
.	16cc#\	.
8F\ 8B-\ 8d\J	16dd\	.
.	16ee-\JJ)	.
=16	=16	=16
(8BB-\L	8b-\ 8dd\ 8ff\L	.
8D\	16b-\ 16ff\L	.
.	16dd\JJ	.
8F\	16b-\ (16ff\LL	.
.	16dd\J	.
8A-\J)	8b-\ 8ff\J)	.
=17	=17	=17
*^	*	*
8G/L	4GG\ 4G\	(16b-\LK	f
.	.	8ee-\ 8bb-\)	.
8G/ 8B-/ 8e-/J	.	.	.
.	.	(16b-\Jk	.
8G-/L	4GG-\ 4G-\	8ee-\ 8bb-\L)	.
8G-/ 8B-/ 8e-/J	.	(16b-\L	.
.	.	[16dd\ [16bb-\JJ)	.
*v	*v	*	*
=18	=18	=18
8FF\ 8F\L	16dd\] 16bb-\LL]	.
.	(16ddd\	.
8F\ 8B-\ 8d\J	16bb-\	.
.	16ff\JJ)	.
8FF\ 8F\L	(16dd\LL	.
.	16ff\	.
8F\ 8B-\ 8d\J	16gg\	.
.	16bb-\JJ)	.
=19	=19	=19
*>A1	*>A1	*>A1
*	*^	*
(8GG/ 8G/L	4b-/	(8en\L	.
8GG-/) 8G-/J	.	8e-\J)	.
4FF/ 4F/	16cc/LK	8.e-\ 8.a\L	.
.	8dd/	.	.
.	[16b-/Jk	[16d\Jk	.
*	*v	*v	*
=20	=20	=20
8BB-\ 8B-\	8d/] 8b-/L]	.
8r	(16b-/L	.
.	16cc/JJ	.
8r	16dd\LL	.
.	16ee-\J)	.
8FF/ 8F/	8a\ 8ee-\ 8ff\J	.
=21:|!	=21:|!	=21:|!
*>A2	*>A2	*>A2
*	*^	*
8GG\ (8G\L	4b-/	(8en\L	.
8GG-\ 8G-\J)	.	8e-\J)	.
4FF/ 4F/	16cc/LK	8.e-\ 8.a\L	.
.	8dd/	.	.
.	[16b-/Jk	[16d\Jk	.
=22	=22	=22	=22
8BB-\ 8B-\	8b-/L]	8d/]	.
*	*v	*v	*
8r	(16f/L	.
.	16en/JJ	.
8r	16f/LL	.
.	16f#/	.
8BBn\ 8Bn\	16g/	.
.	16g#/JJ)	.
=23!|:	=23!|:	=23!|:
*>B	*>B	*>B
8C\ 8c\L	(16a\LK	mf
.	8cc\ 8ee-\ 8aa\)	.
8F\ 8A\ 8e-\J	.	.
.	(16g\Jk	.
8FF\ 8F\L	8cc\ 8ee-\ 8gg\L)	.
8F\ 8A\ 8e-\J	(16a\L	.
.	[16cc\ [16ee-\ [16aa\JJ)	.
=24	=24	=24
8C\ 8c\L	16cc\] 16ee-\] 16aa\LL]	.
.	(16g\J	.
8F\ 8A\ 8e-\J	8cc\ 8ee-\ 8gg\J)	.
8FF\ 8F\L	8a\ 8cc\ 8ee-\ 8aa\L	.
8F\ 8A\ 8e-\J	8g\ 8cc\ 8ee-\ 8gg\J	.
=25	=25	=25
8BB-\ 8B-\L	(16g\LK	.
.	8b-\ 8dd\ 8gg\)	.
8F\ 8B-\ 8d\J	.	.
.	(16f\Jk	.
8FF\ 8F\L	8b-\ 8dd\ 8ff\L)	.
8F\ 8B-\ 8d\J	(16g\L	.
.	16b-\ [16dd\ [16gg\JJ)	.
=26	=26	=26
8BB-\ 8B-\L	16b-\ 16dd\] 16gg\LL]	.
.	(16f\J	.
8F\ 8B-\ 8d\J	8b-\ 8dd\ 8ff\J)	.
8FF\ 8F\L	8g\ 8b-\ 8dd\ 8gg\L	.
8F\ 8B-\ 8d\J	8f\ 8b-\ 8dd\ 8ff\J	.
=27	=27	=27
8AA\ 8A\L	(16ff\LK	.
.	8aa\ 8ccc\ 8fff\)	.
8F\ 8A\ 8e-\J	.	.
.	(16ee-\Jk	.
8FF\ 8F\L	8aa\ 8ccc\ 8eee-\L)	.
8F\ 8A\ 8e-\J	(16dd\L	.
.	[16ff\ [16aa\ [16ddd\JJ)	.
=28	=28	=28
8AA\ 8A\L	16ff\] 16aa\] 16ddd\LL]	.
.	(16ee-\J	.
8F\ 8A\ 8e-\J	8aa\ 8ccc\ 8eee-\J)	.
8FF\ 8F\L	8dd\ 8ff\ 8ddd\L	.
8F\ 8A\ 8e-\J	8cc\ 8ff\ 8ccc\J	.
=29	=29	=29
8BB-\ 8B-\L	(16cc\LK	.
.	8ff\ 8ccc\)	.
8F\ 8B-\ 8d\J	.	.
.	([16b-\Jk	.
8BB-\ 8B-\L	8b-\] 8ff\ 8bb-\L)	.
8En\ 8B-\ 8c#\J	8g\ 8b-\ 8cc#\ 8gg\J	.
=30	=30	=30
8F\ 8B-\ 8d\	8f\ 8b-\ 8dd\ 8ff\L	.
8r	(16f\L	.
.	16en\JJ	.
8r	16f/LL	.
.	16f#/	.
8BBn\ 8Bn\	16g/	.
.	16g#/JJ)	.
=31	=31	=31
8C\ 8c\L	(16a\LK	.
.	8cc\ 8ee-\ 8aa\)	.
8F\ 8A\ 8e-\J	.	.
.	(16g\Jk	.
8FF\ 8F\L	8cc\ 8ee-\ 8gg\L)	.
8F\ 8A\ 8e-\J	(16a\L	.
.	[16cc\ [16ee-\ [16aa\JJ)	.
=32	=32	=32
8C\ 8c\L	16cc\] 16ee-\] 16aa\LL]	.
.	(16g\J	.
8F\ 8A\ 8e-\J	8cc\ 8ee-\ 8gg\J)	.
8FF\ 8F\L	8a\ 8cc\ 8ee-\ 8aa\L	.
8F\ 8A\ 8e-\J	8g\ 8cc\ 8ee-\ 8gg\J	.
=33	=33	=33
8BB-\ 8B-\L	(16g\LK	.
.	8b-\ 8dd\ 8gg\)	.
8F\ 8B-\ 8d\J	.	.
.	(16f\Jk	.
8FF\ 8F\L	8b-\ 8dd\ 8ff\L)	.
8F\ 8B-\ 8d\J	(16g\L	.
.	[16b-\ [16dd\ [16gg\JJ)	.
=34	=34	=34
8BB-\ 8B-\L	16b-\] 16dd\] 16gg\LL]	.
.	16f\J	.
8F\ 8B-\ 8d\J	8b-\ 8dd\ 8ff\J	.
8FF\ 8F\L	8g\ 8b-\ 8dd\ 8gg\L	.
8F\ 8B-\ 8d\J	8f\ 8b-\ 8dd\ 8ff\J	.
=35	=35	=35
8EE-\ 8E-\L	(16g-\LK	f
.	8b-\ 8ee-\ 8gg-X\)	.
8G-\ 8B-\ 8e-\J	.	.
.	(16b-\Jk	.
8GG-X/ 8G-/L	8b-\ 8ee-\ 8gg-\ 8bb-\L)	.
8EE-/ 8E-/J	8g-\ 8b-\ 8ee-\ 8gg-\J	.
=36	=36	=36
8DD\ 8D\L	(16f\LK	.
.	8b-\ 8dd\ 8ff\)	.
8F\ 8B-\ 8d\J	.	.
.	([16en\Jk	.
8CC#/ 8C#/L	8e\] 8b-\ 8cc#\ 8een\L)	.
8DD/ 8D/J	8f\ 8b-\ 8dd\ 8ff\J	.
=37	=37	=37
8FF\ 8F\L	(16ee-\LK	.
.	8aa\ 8ccc\)	.
8F\ 8A\ 8e-\J	.	.
.	([16ff\Jk	.
8FF\ 8F\L	8ff\] 8aa\ 8ddd\L)	.
8F\ 8A\ 8e-\J	8ee-\ 8aa\ 8ccc\J	.
=38	=38	=38
*>B1	*>B1	*>B1
8BB-\ 8B-\	8dd\ 8bb-\L	.
8r	(16f\L	.
.	16en\JJ	.
8r	16f/LL	.
.	16f#/	.
8BBn\ 8Bn\	16g/	.
.	16g#/JJ)	.
=39:|!	=39:|!	=39:|!
*>B2	*>B2	*>B2
8BB-\ 8B-\	8dd\ 8bb-\L	.
8r	(16b-\L	.
.	16cc\JJ	.
8r	16dd\LL	.
.	16ee-\J)	.
8FF/ 8F/	8a\ 8ee-\ 8ff\J	.
=40||	=40||	=40||
*>C	*>C	*>C
8BB-\L	16b-\ 16dd\ 16gg\LK	mf
.	8ff\	.
8F\ 8B-\ 8d\J	.	.
.	16ee-\Jk	.
8FF\L	(16dd\LL	.
.	16cc#\	.
8F\ 8B-\ 8d\J	16dd\	.
.	16ccn\JJ)	.
=41	=41	=41
8BB-\L	(16b-\LL	.
.	16cc\	.
8F\ 8B-\ 8d\J	16dd\	.
.	[16ff\JJ)	.
8FF\L	16ff\LL]	.
.	16bb-\J	.
8F\ 8B-\ 8d\J	8ff\ 8ddd\J	.
=42	=42	=42
8BB-\L	16b-\ 16dd\ 16gg\LK	.
.	8ff\	.
8F\ 8B-\ 8d\J	.	.
.	16ee-\Jk	.
8FF\L	(16dd\LL	.
.	16cc#\	.
8F\ 8B-\ 8d\J	16dd\	.
.	16ee-\JJ)	.
=43	=43	=43
(8BB-\L	8b-\ 8dd\ 8ff\L	.
8D\	16b-\ (16ff\L	.
.	16dd\JJ	.
8F\	16b-\ 16ff\LL	.
.	16dd\J	.
8A-\J)	8b-\ 8ff\J)	.
=44	=44	=44
*^	*	*
8G/L	4GG\ 4G\	(16b-\LK	f
.	.	8ee-\ 8bb-\)	.
8G/ 8B-/ 8e-/J	.	.	.
.	.	(16b-\Jk	.
8G-/L	4GG-\ 4G-\	8ee-\ 8bb-\L)	.
8G-/ 8B-/ 8e-/J	.	(16b-\L	.
.	.	[16dd\ [16bb-\JJ)	.
*v	*v	*	*
=45	=45	=45
8FF\ 8F\L	16dd\] 16bb-\LL]	.
.	(16ddd\	.
8F\ 8B-\ 8d\J	16bb-\	.
.	16dd\JJ)	.
*	*^	*
(8DD/ 8D/L	(16ff/LL	4b-\	.
.	16een/	.	.
8DD-/) 8D-/J	16ff/	.	.
.	16gg/JJ)	.	.
*	*v	*v	*
=46	=46	=46
8CC\ 8C\L	(16aa\LK	.
.	8cc\ 8ff\)	.
8A\ 8c\ 8f\J	.	.
.	(16aa\Jk	.
8CC\ 8C\L	8b-\ 8een\ 8gg\L)	.
8B-\ 8c\ 8en\J	16b-\ 16ee\ 16aa\L	.
.	[16a\ [16ff\JJ	.
=47	=47	=47
8FF/ 8F/L	8a\] 8ff\L]	.
8C/	(16a\L	.
.	16b-\JJ	.
8AA/	16cc\LL	.
.	16dd\	.
8FF/J	16ee-\	.
.	16ff\JJ)	.
=48	=48	=48
8BB-\L	16b-\ 16dd\ 16gg\LK	mf
.	8ff\	.
8F\ 8B-\ 8d\J	.	.
.	16ee-\Jk	.
8FF\L	(16dd\LL	.
.	16cc#\	.
8F\ 8B-\ 8d\J	16dd\	.
.	16ccn\JJ)	.
=49	=49	=49
8BB-\L	(16b-\LL	.
.	16cc\	.
8F\ 8B-\ 8d\J	16dd\	.
.	[16ff\JJ)	.
8FF\L	16ff\LL]	.
.	16bb-\J	.
8F\ 8B-\ 8d\J	8ff\ 8ddd\J	.
=50	=50	=50
8BB-\L	16b-\ 16dd\ 16gg\LK	.
.	8ff\	.
8F\ 8B-\ 8d\J	.	.
.	16ee-\Jk	.
8FF\L	(16dd\LL	.
.	16cc#\	.
8F\ 8B-\ 8d\J	16dd\	.
.	16ee-\JJ)	.
=51	=51	=51
(8BB-\L	8b-\ 8dd\ 8ff\L	.
8D\	16b-\ (16ff\L	.
.	16dd\JJ	.
8F\	16b-\ 16ff\LL	.
.	16dd\J	.
8A-\J)	8b-\ 8ff\J)	.
=52	=52	=52
*^	*	*
8G/L	4GG\ 4G\	(16b-\LK	f
.	.	8ee-\ 8bb-\)	.
8G/ 8e-/J	.	.	.
.	.	(16b-\Jk	.
8G-/L	4GG-\ 4G-\	8ee-\ 8bb-\L)	.
8G-/ 8B-/ 8e-/J	.	(16b-\L	.
.	.	16dd\ [16bb-\JJ)	.
*v	*v	*	*
=53	=53	=53
8FF\ 8F\L	16dd\ 16bb-\LL]	.
.	(16ddd\	.
8F\ 8B-\ 8d\J	16bb-\	.
.	16ff\JJ)	.
8FF\ 8F\L	(16dd\LL	.
.	16ff\	.
8F\ 8B-\ 8d\J	16gg\	.
.	16bb-\JJ)	.
=54	=54	=54
*	*^	*
(8GG/ 8G/L	4b-/	(8en\L	.
8GG-/) 8G-/J	.	8e-\J)	.
4FF/ 4F/	16cc/LK	8.e-\ 8.a\L	.
.	8dd/	.	.
.	[16b-/Jk	[16d\Jk	.
*	*v	*v	*
=55	=55	=55
*^	*	*
[4B-/	8BB-\L	4d/_ 4b-/_	.
.	8F\J	.	.
*	*	*^	*
4B-/]	4BB-\	(16b-/LL]	4d\]	.
.	.	16a-/ 16cc/	.	.
.	.	16g/ 16b-/	.	.
.	.	16f/ 16a-/JJ)	.	.
*v	*v	*	*	*
*	*v	*v	*
=56!|:	=56!|:	=56!|:
*>D	*>D	*>D
*k[b-e-a-]	*k[b-e-a-]	*k[b-e-a-]
*E-:	*E-:	*E-:
(8EE-/L	16B-/ 16e-/ 16g/LK	mp
.	8An/ 8e-/ 8f#/	.
8C/J)	.	.
.	[16B-/ [16e-/ [16g/Jk	.
(16BB-/LL	4B-/] 4e-/] 4g/]	.
16E-/	.	.
16BB-/	.	.
16GG/JJ)	.	.
=57	=57	=57
(8EE-/L	16B-/ 16e-/ 16g/LK	.
.	8An/ 8e-/ 8f#/	.
8C/J)	.	.
.	[16B-/ [16e-/ [16g/Jk	.
(16BB-/LL	4B-/] 4e-/] 4g/]	.
16E-/	.	.
16BB-/	.	.
16GG/JJ)	.	.
=58	=58	=58
*^	*^	*
(8AA-/L	4AA-\	16e-/LK	8.c\L	.
.	.	8f/	.	.
8E-/J)	.	.	.	.
.	.	[16g-/Jk	[16c\ [16e-\Jk	.
(8AA-/L	4AA-\	(16g-/LL]	4c\] 4e-\]	.
.	.	16f/J	.	.
8E-/J)	.	8e-/J)	.	.
*	*	*v	*v	*
=59	=59	=59	=59
(16EE-/LL	4EE-\	4B-/ 4e-/ (4gn/	.
16BB-/	.	.	.
16E-/	.	.	.
16G/JJ	.	.	.
*	*	*^	*
4B-/)	4ry	&(16f/&) (16a-/LL)	4d\	.
.	.	16a-/ 16cc/	.	.
.	.	16g/ 16b-/	.	.
.	.	16f/ 16a-/JJ)	.	.
*v	*v	*	*	*
*	*v	*v	*
=60	=60	=60
(8EE-/L	16B-/ 16e-/ 16g/LK	.
.	8An/ 8e-/ 8f#/	.
8C/J)	.	.
.	[16B-/ [16e-/ [16g/Jk	.
16BB-/LL	8B-/] 8e-/] 8g/L]	.
16E-/J	.	.
8C/J	8g/ 8cc/ 8ee-/J	.
=61	=61	=61
(8D\L	16g\ 16b-\ 16ee-\LK	.
.	8g\ 8b-\ 8dd\	.
8G\J)	.	.
.	[16g\ [16b-\ [16dd\Jk	.
(16B-\LL	8g\] 8b-\] 8dd\L]	.
16G\J	.	.
8D\J)	8dd\ 8gg\ 8bb-\J	.
=62	=62	=62
*^	*^	*
8D/L	4D\	16bb-/LK	8.cc\ 8.ff#\L	mf
.	.	8aan/	.	.
8c/ 8d/J	.	.	.	.
.	.	[16aa/Jk	16cc\ [16ff#\Jk	.
8D/L	4D\	16aa/LL]	8cc\ 8ff#\L]	.
.	.	16bb-/J	.	.
8c/ 8d/J	.	8aa/J	8cc\ 8ff#\J	.
*	*	*v	*v	*
=63	=63	=63	=63
4B-/ 4d/	8G\L	4b-\ 4gg\	.
.	(16D\L	.	.
.	16G\JJ)	.	.
*	*	*^	*
4ry	4B-\	16g/ (16b-/LL	4d\	.
.	.	16a-/ 16cc/	.	.
.	.	16g/ 16b-/	.	.
.	.	16f/ 16a-/JJ)	.	.
*v	*v	*	*	*
*	*v	*v	*
=64	=64	=64
(8EE-/L	16B-/ 16e-/ 16g/LK	mp
.	8An/ 8e-/ 8f#/	.
8C/J)	.	.
.	[16B-/ [16e-/ [16g/Jk	.
(16BB-/LL	4B-/] 4e-/] 4g/]	.
16E-/	.	.
16BB-/	.	.
16GG/JJ)	.	.
=65	=65	=65
(8EE-/L	16B-/ 16e-/ 16g/LK	.
.	8An/ 8e-/ 8f#/	.
8C/J)	.	.
.	[16B-/ [16e-/ [16g/Jk	.
(16BB-/LL	4B-/] 4e-/] 4g/]	.
16E-/	.	.
16BB-/	.	.
16GG/JJ)	.	.
=66	=66	=66
*^	*^	*
(8AA-/L	4AA-\	16e-/LK	8.c\L	.
.	.	8f/	.	.
8E-/J)	.	.	.	.
.	.	[16g-/Jk	[16c\ [16e-\Jk	.
(8AA-/L	4AA-\	(16g-/LL]	4c\] 4e-\]	.
.	.	16f/J	.	.
8E-/J)	.	8e-/J)	.	.
*v	*v	*	*	*
*	*v	*v	*
=67	=67	=67
(16EE-/LL	[4B-/ [4e-/ [4gn/	.
16GG/	.	.
16BB-/	.	.
16E-/JJ)	.	.
(8BB-/L	8B-/] 8e-/] 8g/L]	.
8GG/J)	8d-/ 8e-/ 8b-/J	.
=68	=68	=68
*^	*^	*
(8AA-/L	4AA-\	(16b-/LK	8.c\ 8.e-\L	.
.	.	8a-/)	.	.
8E-/J)	.	.	.	.
.	.	[16cc/Jk	[16e-\ [16a-\Jk	.
*v	*v	*	*	*
8AA-/L	16cc/LL]	8e-\] 8a-\L]	.
.	16bn/J	.	.
8AAn/J	8cc/J	8e-\ 8f#\J	.
=69	=69	=69	=69
*^	*	*	*
(8BB-/L	4BB-\	(16cc/LK	8.e-\ 8.g\L	.
.	.	8b-/)	.	.
8B-/J)	.	.	.	.
.	.	[16gg/Jk	[16b-\ [16ee-\Jk	.
(8BB-/L	4BB-\	(16gg/LL]	8b-\] 8ee-\L]	.
.	.	16ee-/J	.	.
8B-/J)	.	8g/J)	8e-\J	.
*v	*v	*	*	*
=70	=70	=70	=70
(8BB-/L	(16g/LK	8.A-\ 8.d\L	.
.	8f/)	.	.
8BBB-/J)	.	.	.
.	[16a-/ [16cc/Jk	[16d\Jk	.
(8BB-/L	16a-/] 16cc/LL]	8d\L]	.
.	16b-/J	.	.
8BBB-/J)	8g/J	8A-\ 8d\J	.
*	*v	*v	*
=71	=71	=71
*>D1	*>D1	*>D1
8EE-/ 8BB-/ 8E-/	8G/ 8e-/L	.
8r	(16B-/L	.
.	16c/JJ	.
4BB-\ 4F\ 4A-\	16d/LL	.
.	16e-/	.
.	16f/	.
.	16f#/JJ)	.
=72:|!	=72:|!	=72:|!
*>D2	*>D2	*>D2
(8EE-/ 8BB-/ 8E-/L	[4G/ [4e-/	.
8GG/	.	.
8BB-/	16G/] 16e-/LL]	.
.	16d/ 16dd/	.
8E-/J)	16e-/ 16ee-/	.
.	16f/ 16ff/JJ	.
=73!|:	=73!|:	=73!|:
*>E	*>E	*>E
(8C-\L	16g-\ 16cc-\ 16ee-\ 16gg-\LK	mf
.	8g-\ 8cc-\ 8ee-\ 8gg-\	.
8D-\	.	.
.	[16g-\ [16cc-\ [16ee-\ [16gg-\Jk	.
8E-\	4g-\_ 4cc-\_ 4ee-\_ 4gg-\_	.
8G-\J)	.	.
=74	=74	=74
(8c-\L	16g-\] 16cc-\] 16ee-\] 16gg-\LL]	.
.	16cc-\ 16ee-\	.
8G-\	16g-\ 16gg-\	.
.	16cc-\JJ	.
8E-\	16ee-\LK	.
.	8g-\ 8gg-\	.
8C-\J)	.	.
.	16cc-\ 16ee-\Jk	.
=75	=75	=75
(8BB-\L	16gn\ 16b-\ 16ee-\ 16ggn\LK	.
.	8g\ 8b-\ 8ee-\ 8gg\	.
8E-\	.	.
.	[16g\ [16b-\ [16ee-\ [16gg\Jk	.
8F\	4g\_ 4b-\_ 4ee-\_ 4gg\_	.
8Gn\J)	.	.
=76	=76	=76
(8B-\L	16g\] 16b-\] 16ee-\] 16gg\LL]	.
.	16ee-\ 16gg\	.
8G\	16b-\ 16bb-\	.
.	16ee-\JJ	.
8E-\	16ff\LK	.
.	8.b-\ 8.ee-\ 8.gg\J	.
8BB-\J)	.	.
=77	=77	=77
8DD\ 8D\L	16aa-\ 16ccc\LK	.
.	8gg\ 8bb-\	.
8A-\ 8B-\ 8d\J	.	.
.	[16ff\ [16aa-\Jk	.
8BBB-\ 8BB-\L	16ff\] 16aa-\LL]	.
.	16ee-\ 16gg\J	.
8A-\ 8B-\ 8d\J	8dd\ 8ff\J	.
=78	=78	=78
8BB-\ 8B-\L	16cc#\ 16een\LK	.
.	8dd\ 8ff\	.
8A-\ 8B-\ 8d\J	.	.
.	[16dd\ [16ff\Jk	.
8BBB-\ 8BB-\L	16dd\] (16ff\LL]	.
.	16ee-\ 16gg\J	.
8A-\ 8B-\ 8d\J	8ff\ 8aa-\J)	.
=79	=79	=79
8EE-\ 8E-\L	16ee-\ 16gg\ (16ccc\LK	.
.	8bb-\)	.
8G\ 8B-\ 8e-\J	.	.
.	[16b-\ [16gg\Jk	.
8BBB-\ 8BB-\L	16b-\] (16gg\LL]	.
.	16a-\ 16ff\J	.
8G\ 8B-\ 8e-\J	8g\ 8ee-\J)	.
=80	=80	=80
8EE-\ 8E-\L	16an\ 16ff#\LK	.
.	8b-\ 8gg\	.
8G\ 8B-\ 8e-\J	.	.
.	[16b-\ [16gg\Jk	.
8G\ 8B-\	16b-\] 16gg\LL]	.
.	16d\ 16dd\	.
8r	16e-\ 16ee-\	.
.	16fn\ 16ffn\JJ	.
=81	=81	=81
(8C-\L	16g-\ 16cc-\ 16ee-\ 16gg-\LK	.
.	8g-\ 8cc-\ 8ee-\ 8gg-\	.
8D-\	.	.
.	[16g-\ [16cc-\ [16ee-\ [16gg-\Jk	.
8E-\	4g-\_ 4cc-\_ 4ee-\_ 4gg-\_	.
8G-\J)	.	.
=82	=82	=82
(8c-\L	16g-\] 16cc-\] 16ee-\] 16gg-\LL]	.
.	16cc-\ 16ee-\	.
8G-\	16g-\ 16gg-\	.
.	16cc-\JJ	.
8E-\	16ee-\LK	.
.	8g-\ 8gg-\	.
8C-\J)	.	.
.	16cc-\ 16ee-\Jk	.
=83	=83	=83
(8BB-\L	16gn\ 16b-\ 16ee-\ 16ggn\LK	.
.	8g\ 8b-\ 8ee-\ 8gg\	.
8E-\	.	.
.	[16g\ [16b-\ [16ee-\ [16gg\Jk	.
8F\	4g\_ 4b-\_ 4ee-\_ 4gg\_	.
8Gn\J)	.	.
=84	=84	=84
(8B-\L	16g\] 16b-\] 16ee-\] 16gg\LL]	.
.	16ee-\ 16gg\	.
8G\	16b-\ 16bb-\	.
.	16ee-\JJ	.
8E-\	16ff\LK	.
.	8.b-\ 8.ee-\ 8.gg\J	.
8BB-\J)	.	.
=85	=85	=85
(8AA-\L	16cc\ 16ee-\ 16gg\LK	.
.	8cc\ 8ee-\ 8gg\	.
8C\	.	.
.	[16cc\ [16ee-\ 16ff\Jk	.
*	*^	*
8E-\	8cc\] 8ee-\L]	16ff/LL]	.
.	.	16ee-/J	.
8A-\J)	8cc-\ 8ee-\J	8ff/J	.
*	*v	*v	*
=86	=86	=86
(8BB-\L	16b-\ 16ee-\ 16gg\LK	.
.	8b-\ 8ee-\ 8gg\	.
8E-\	.	.
.	[16b-\ [16ee-\ 16bb-\Jk	.
*	*^	*
8G\	(16bb-/LL]	8b-\] 8ee-\L]	.
.	16ee-/J)	.	.
8B-\J)	8gg/J	8b-\ 8ee-\J	.
=87	=87	=87	=87
8FF\ 8F\L	16bb-/LK	8.b-\ 8.dd\L	.
.	8aa-/	.	.
8A-\ 8B-\ 8d\J	.	.	.
.	[16gg/Jk	[16a-\ [16dd\Jk	.
8BBB-\ 8BB-\L	(16gg/LL]	8a-\] 8dd\L]	.
.	16ff/J)	.	.
8A-\ 8B-\ 8d\J	8gg/J	8a-\ 8dd\J	.
*	*v	*v	*
=88	=88	=88
*>E1	*>E1	*>E1
(8EE-/ 8E-/L	[4g\ [4b-\ [4ee-\	.
8GG/	.	.
8BB-/	16g\] 16b-\] 16ee-\LL]	.
.	16d\ 16dd\	.
8E-/J)	16e-\ 16ee-\	.
.	16f\ 16ff\JJ	.
=89:|!	=89:|!	=89:|!
*>E2	*>E2	*>E2
8EE-/ 8E-/L	4g\ 4b-\ 4ee-\	.
8BB-/J	.	.
8EE-/	8ee-\ 8gg\ 8bb-\ 8eee-\	.
8r	8r	.
==	==	==
*-	*-	*-
!!!hum2abc: -s 0.85 --spacing 1.3 
